src/assets/duotone/Airdrop.svg

<svg width="24" height="24" viewBox="0 0 24 24"  xmlns="http://www.w3.org/2000/svg">
<path d="M14.1302 11.3396C14.5202 9.69959 13.0902 8.26954 11.4502 8.65954C10.6802 8.84954 10.0502 9.47957 9.86022 10.2496C9.47023 11.8896 10.9002 13.3196 12.5402 12.9296C13.3202 12.7396 13.9502 12.1096 14.1302 11.3396Z" />
<path opacity="0.4" d="M6.01996 17.97C5.83996 17.97 5.64995 17.9 5.50995 17.77C3.56995 15.97 2.45996 13.43 2.45996 10.79C2.45996 5.52998 6.73995 1.25 12 1.25C17.26 1.25 21.5399 5.52998 21.5399 10.79C21.5399 13.45 20.47 15.91 18.53 17.74C18.23 18.02 17.75 18.01 17.47 17.71C17.19 17.41 17.2 16.93 17.5 16.65C19.14 15.11 20.0399 13.04 20.0399 10.8C20.0399 6.36999 16.43 2.76001 12 2.76001C7.56995 2.76001 3.95996 6.36999 3.95996 10.8C3.95996 13.06 4.86995 15.14 6.52995 16.68C6.82995 16.96 6.84996 17.44 6.56996 17.74C6.41996 17.89 6.21996 17.97 6.01996 17.97Z" />
<path opacity="0.4" d="M16 15.2996C15.82 15.2996 15.63 15.2295 15.49 15.0995C15.19 14.8195 15.17 14.3396 15.46 14.0396C16.29 13.1596 16.75 11.9996 16.75 10.7996C16.75 8.17956 14.62 6.05957 12.01 6.05957C9.40001 6.05957 7.27002 8.18956 7.27002 10.7996C7.27002 12.0096 7.73001 13.1596 8.56001 14.0396C8.84001 14.3396 8.83001 14.8195 8.53001 15.0995C8.23001 15.3895 7.75002 15.3696 7.47002 15.0696C6.38002 13.9096 5.77002 12.3896 5.77002 10.7996C5.77002 7.35956 8.57001 4.55957 12.01 4.55957C15.45 4.55957 18.25 7.35956 18.25 10.7996C18.25 12.3896 17.65 13.9096 16.55 15.0696C16.4 15.2196 16.2 15.2996 16 15.2996Z" />
<path d="M10.3002 16.6603L8.86022 18.4503C7.72022 19.8803 8.73022 21.9903 10.5602 21.9903H13.4302C15.2602 21.9903 16.2802 19.8703 15.1302 18.4503L13.6902 16.6603C12.8302 15.5703 11.1702 15.5703 10.3002 16.6603Z" />
</svg>

<?xml version="1.0" encoding="UTF-8"?>
<svg width="24" height="24" viewBox="0 0 24 24" xmlns="http://www.w3.org/2000/svg">
 <path d="m14.13 11.34c0.39-1.64-1.04-3.0701-2.68-2.6801-0.77 0.19-1.4 0.82003-1.59 1.5901-0.38999 1.64 1.04 3.07 2.68 2.68 0.78-0.19 1.41-0.82 1.59-1.59z"/>
 <path d="m6.02 17.97c-0.18 0-0.37001-0.07-0.51001-0.2-1.94-1.8-3.05-4.34-3.05-6.98 0-5.26 4.28-9.54 9.54-9.54 5.26 0 9.5399 4.28 9.5399 9.54 0 2.66-1.0699 5.12-3.0099 6.95-0.3 0.28-0.78 0.27-1.06-0.03s-0.27-0.78 0.03-1.06c1.64-1.54 2.5399-3.61 2.5399-5.85 0-4.43-3.6099-8.04-8.0399-8.04-4.43 0-8.04 3.61-8.04 8.04 0 2.26 0.90999 4.34 2.57 5.88 0.3 0.28 0.32001 0.76 0.04001 1.06-0.15 0.15-0.35 0.23-0.55 0.23z" opacity=".4"/>
 <path d="m16 15.3c-0.18 0-0.37-0.0701-0.51-0.2001-0.3-0.28-0.32-0.7599-0.03-1.0599 0.83-0.88 1.29-2.04 1.29-3.24 0-2.62-2.13-4.74-4.74-4.74-2.61 0-4.74 2.13-4.74 4.74 0 1.21 0.45999 2.36 1.29 3.24 0.28 0.3 0.27 0.7799-0.03 1.0599-0.3 0.29-0.77999 0.2701-1.06-0.0299-1.09-1.16-1.7-2.68-1.7-4.27 0-3.44 2.8-6.24 6.24-6.24 3.44 0 6.24 2.8 6.24 6.24 0 1.59-0.6 3.11-1.7 4.27-0.15 0.15-0.35 0.23-0.55 0.23z" opacity=".4"/>
 <path d="m10.3 16.66-1.44 1.79c-1.14 1.43-0.13 3.54 1.7 3.54h2.87c1.83 0 2.85-2.12 1.7-3.54l-1.44-1.79c-0.86-1.09-2.52-1.09-3.39 0z"/>
</svg>
